assets/icons/saveoutlinedark.svg

<svg width="20" height="20" viewBox="0 0 20 20" fill="none" xmlns="http://www.w3.org/2000/svg">
<path d="M13.3337 7.49205V16.9587C13.3337 18.1671 12.467 18.6754 11.4087 18.092L8.13367 16.267C7.78367 16.0754 7.21698 16.0754 6.86698 16.267L3.59199 18.092C2.53366 18.6754 1.66699 18.1671 1.66699 16.9587V7.49205C1.66699 6.06705 2.83365 4.90039 4.25865 4.90039H10.742C12.167 4.90039 13.3337 6.06705 13.3337 7.49205Z" stroke="#879AFF" stroke-width="1.5" stroke-linecap="round" stroke-linejoin="round"/>
<path d="M18.3337 4.25767V13.7244C18.3337 14.9327 17.467 15.441 16.4087 14.8577L13.3337 13.141V7.49101C13.3337 6.06601 12.167 4.89935 10.742 4.89935H6.66699V4.25767C6.66699 2.83267 7.83365 1.66602 9.25865 1.66602H15.742C17.167 1.66602 18.3337 2.83267 18.3337 4.25767Z" stroke="#879AFF" stroke-width="1.5" stroke-linecap="round" stroke-linejoin="round"/>
<path d="M5.83301 10H9.16634" stroke="#879AFF" stroke-width="1.5" stroke-linecap="round" stroke-linejoin="round"/>
<path d="M7.5 11.6673V8.33398" stroke="#879AFF" stroke-width="1.5" stroke-linecap="round" stroke-linejoin="round"/>
</svg>

<svg width="20" height="20" viewBox="0 0 20 20" fill="none" xmlns="http://www.w3.org/2000/svg"><path d="M13.33 7.5v9.46c0 1.2-.86 1.72-1.92 1.13l-3.28-1.82a1.4 1.4 0 0 0-1.26 0l-3.28 1.82c-1.06.59-1.92.08-1.92-1.13V7.49A2.6 2.6 0 0 1 4.26 4.9h6.48a2.6 2.6 0 0 1 2.6 2.6" stroke="#879AFF" stroke-width="1.5" stroke-linecap="round" stroke-linejoin="round"/><path d="M18.33 4.26v9.46c0 1.21-.86 1.72-1.92 1.14l-3.08-1.72V7.5a2.6 2.6 0 0 0-2.59-2.6H6.67v-.63a2.6 2.6 0 0 1 2.59-2.6h6.48a2.6 2.6 0 0 1 2.6 2.6M5.83 10h3.34M7.5 11.67V8.33" stroke="#879AFF" stroke-width="1.5" stroke-linecap="round" stroke-linejoin="round"/></svg>
